dist/svgs/github.svg

<svg xmlns="http://www.w3.org/2000/svg" viewBox="0 0 512 512"><path d="M351 366q30-11 46-34t20-55q2-16 2.5-31.5T414 215q-3-9-8-17t-9-16q-4-5-2-10 8-30-3-59-1-6-8-6-25 1-45 17-10 7-19.5 8t-20.5-2q-26-5-50.5-4t-49.5 7q-6 2-13-2-12-8-24-14t-26-9q-10-2-13-.5t-5 12.5q-8 28-1 52 2 6-1 8-18 23-22 48t1 52q13 80 95 95 5 1 9 1.5t7 .5l-6 16-7 16q-2 5-5 6-44 17-69-23-6-11-14.5-18.5T83 364h-3l-6 2-6 2q2 2 3.5 4.5T75 377q11 8 18.5 18.5T106 419q8 16 20.5 23.5T156 452q9 1 18 .5t18-.5q0 11 .5 23t-.5 24q0 8-5 10.5t-13 .5q-6-2-11.5-4.5T152 501q-39-18-69-46.5T33 390 5 313t-3-84 23-81 46-68 64-50 77-27q54-9 105 4t91.5 43.5T476 127t34 101q6 46-3.5 89.5t-32 81-56 66T343 508q-4 2-6 2-17 5-17-14v-64q0-14-2.5-28T304 379q13-4 24.5-6.5T351 366z"/></svg>

<?xml version="1.0" encoding="UTF-8" standalone="no"?><svg   xmlns:svg="http://www.w3.org/2000/svg"   xmlns="http://www.w3.org/2000/svg"   version="1.1"   width="512"   height="512"   viewBox="0 0 512 512">  <path     d="M351 366Q381 355 397 332T417 277Q419 261 419.5 245.5T414 215Q411 206 406 198T397 182Q393 177 395 172Q403 142 392 113Q391 107 384 107Q359 108 339 124Q329 131 319.5 132T299 130Q273 125 248.5 126T199 133Q193 135 186 131Q174 123 162 117T136 108Q126 106 123 107.5T118 120Q110 148 117 172Q119 178 116 180Q98 203 94 228T95 280Q108 360 190 375Q195 376 199 376.5T206 377L200 393T193 409Q191 414 188 415Q144 432 119 392Q113 381 104.5 373.5T83 364H80L74 366L68 368Q70 370 71.5 372.5T75 377Q86 385 93.5 395.5T106 419Q114 435 126.5 442.5T156 452Q165 453 174 452.5T192 452Q192 463 192.5 475T192 499Q192 507 187 509.5T174 510Q168 508 162.5 505.5T152 501Q113 483 83 454.5T33 390T5 313T2 229T25 148T71 80T135 30T212 3Q266 -6 317 7T408.5 50.5T476 127T510 228Q516 274 506.5 317.5T474.5 398.5T418.5 464.5T343 508Q339 510 337 510Q320 515 320 496V432Q320 418 317.5 404T304 379Q317 375 328.5 372.5T351 366z"     id="github" /></svg>
